assets/Chocolate bar/Flat/chocolate_bar_flat.svg

<svg width="32" height="32" viewBox="0 0 32 32" fill="none" xmlns="http://www.w3.org/2000/svg">
<path d="M13.8225 2.4125C13.2725 1.8625 12.3925 1.8625 11.8425 2.4125L2.4125 11.8425C1.8625 12.3925 1.8625 13.2725 2.4125 13.8225L10.2975 21.7075L10.6805 21.5813L21.7025 10.6381V10.3025L13.8225 2.4125Z" fill="#8C5543"/>
<path d="M8.82191 8.19318L12.4019 11.7732C12.6419 12.0132 13.0219 12.0132 13.2519 11.7632L16.8319 8.18318C17.0719 7.95318 17.0719 7.57318 16.8319 7.33318L13.2519 3.75318C13.0219 3.51318 12.6419 3.51318 12.4019 3.75318L8.82191 7.34318C8.58191 7.57318 8.58191 7.95318 8.82191 8.19318ZM9.13377 18.6513L12.7138 22.2313C12.9538 22.4613 13.3338 22.4613 13.5638 22.2313L17.1438 18.6513C17.3838 18.4213 17.3838 18.0413 17.1438 17.8013L13.5638 14.2213C13.3338 13.9813 12.9538 13.9813 12.7138 14.2213L9.13377 17.8013C8.89377 18.0313 8.89377 18.4113 9.13377 18.6513ZM17.7975 17.1575L14.2175 13.5775C13.9775 13.3375 13.9775 12.9575 14.2175 12.7275L17.7975 9.14753C18.0375 8.90753 18.4175 8.90753 18.6475 9.14753L22.2275 12.7275C22.4675 12.9675 22.4675 13.3475 22.2275 13.5775L18.6475 17.1575C18.4075 17.3975 18.0275 17.3975 17.7975 17.1575ZM3.75251 13.2625L7.33251 16.8425C7.57251 17.0825 7.95251 17.0825 8.18251 16.8425L11.7625 13.2625C12.0025 13.0325 12.0025 12.6525 11.7625 12.4125L8.18251 8.83253C7.95251 8.59253 7.57251 8.59253 7.33251 8.83253L3.75251 12.4125C3.51251 12.6425 3.51251 13.0225 3.75251 13.2625Z" fill="#6D4534"/>
<path d="M13.2619 3.75318L16.8419 7.33318C16.9619 7.45318 17.0219 7.61318 17.0219 7.76318H8.65192C8.65192 7.60318 8.71192 7.45318 8.83192 7.33318L12.4119 3.75318C12.6419 3.51318 13.0219 3.51318 13.2619 3.75318ZM8.19252 8.82252L11.7725 12.4025C11.8925 12.5225 11.9525 12.6725 11.9525 12.8325L3.58252 12.8325C3.58252 12.6725 3.64252 12.5225 3.76252 12.4025L7.34252 8.82252C7.57252 8.58252 7.95252 8.58252 8.19252 8.82252ZM17.1537 17.7913L13.5737 14.2112C13.3337 13.9712 12.9537 13.9712 12.7237 14.2112L9.14373 17.7913C9.02373 17.9113 8.96373 18.0612 8.96373 18.2212H17.3437C17.3337 18.0612 17.2737 17.9113 17.1537 17.7913ZM18.6475 9.13752L22.2275 12.7175C22.3475 12.8375 22.4075 12.9875 22.4075 13.1475H14.0375C14.0375 12.9875 14.0975 12.8375 14.2175 12.7175L17.7975 9.13752C18.0275 8.89752 18.4075 8.89752 18.6475 9.13752Z" fill="#A56953"/>
<path d="M12.8319 4.55316L9.6219 7.76316L12.8319 10.9732L16.0419 7.76316L12.8319 4.55316ZM4.55249 12.8325L7.76249 16.0425L10.9725 12.8325L7.76249 9.6225L4.55249 12.8325ZM13.1525 21.4325L9.9325 18.2225L13.1525 15.0125L16.3625 18.2225L13.1525 21.4325ZM15.0125 13.1525L18.2225 16.3625L21.4325 13.1525L18.2225 9.9325L15.0125 13.1525Z" fill="#8C5543"/>
<path d="M10.2925 21.7125L18.1725 29.5925C18.7225 30.1425 19.6025 30.1425 20.1525 29.5925L29.5825 20.1625C30.1325 19.6125 30.1325 18.7325 29.5825 18.1825L21.7025 10.3025L10.2925 21.7125Z" fill="#CA0B4A"/>
<path d="M23.1625 11.5325L13.3425 24.8225C13.2125 24.9925 12.9725 25.0125 12.8225 24.8625L10.2225 22.2625C10.0925 22.1325 10.0925 21.9125 10.2225 21.7725L21.7825 10.2225C21.9125 10.0925 22.1325 10.0925 22.2725 10.2225L23.1325 11.0825C23.2525 11.2025 23.2625 11.3925 23.1625 11.5325Z" fill="#D3D3D3"/>
</svg>

<svg xmlns="http://www.w3.org/2000/svg" width="32" height="32" fill="none"><path fill="#8C5543" d="M13.822 2.413c-.55-.55-1.43-.55-1.98 0l-9.43 9.43c-.55.55-.55 1.43 0 1.98l7.886 7.884.383-.126 11.022-10.943v-.335l-7.88-7.89Z"/><path fill="#6D4534" d="m8.822 8.193 3.58 3.58c.24.24.62.24.85-.01l3.58-3.58c.24-.23.24-.61 0-.85l-3.58-3.58a.592.592 0 0 0-.85 0l-3.58 3.59c-.24.23-.24.61 0 .85Zm.312 10.458 3.58 3.58c.24.23.62.23.85 0l3.58-3.58c.24-.23.24-.61 0-.85l-3.58-3.58a.592.592 0 0 0-.85 0l-3.58 3.58c-.24.23-.24.61 0 .85Zm8.663-1.494-3.58-3.58a.592.592 0 0 1 0-.85l3.58-3.58c.24-.24.62-.24.85 0l3.58 3.58c.24.24.24.62 0 .85l-3.58 3.58c-.24.24-.62.24-.85 0ZM3.753 13.262l3.58 3.58c.24.24.62.24.85 0l3.58-3.58c.24-.23.24-.61 0-.85l-3.58-3.58a.592.592 0 0 0-.85 0l-3.58 3.58c-.24.23-.24.61 0 .85Z"/><path fill="#A56953" d="m13.262 3.753 3.58 3.58c.12.12.18.28.18.43h-8.37c0-.16.06-.31.18-.43l3.58-3.58c.23-.24.61-.24.85 0Zm-5.07 5.07 3.58 3.58c.12.12.18.27.18.43h-8.37c0-.16.06-.31.18-.43l3.58-3.58c.23-.24.61-.24.85 0Zm8.962 8.968-3.58-3.58a.592.592 0 0 0-.85 0l-3.58 3.58c-.12.12-.18.27-.18.43h8.38a.652.652 0 0 0-.19-.43Zm1.494-8.653 3.58 3.58c.12.12.18.27.18.43h-8.37c0-.16.06-.31.18-.43l3.58-3.58c.23-.24.61-.24.85 0Z"/><path fill="#8C5543" d="m12.832 4.553-3.21 3.21 3.21 3.21 3.21-3.21-3.21-3.21Zm-8.28 8.28 3.21 3.21 3.21-3.21-3.21-3.21-3.21 3.21Zm8.6 8.6-3.22-3.21 3.22-3.21 3.21 3.21-3.21 3.21Zm1.86-8.28 3.21 3.21 3.21-3.21-3.21-3.22-3.21 3.22Z"/><path fill="#CA0B4A" d="m10.293 21.712 7.88 7.88c.55.55 1.43.55 1.98 0l9.43-9.43c.55-.55.55-1.43 0-1.98l-7.88-7.88-11.41 11.41Z"/><path fill="#D3D3D3" d="m23.163 11.533-9.82 13.29c-.13.17-.37.19-.52.04l-2.6-2.6a.357.357 0 0 1 0-.49l11.56-11.55c.13-.13.35-.13.49 0l.86.86c.12.12.13.31.03.45Z"/></svg>
